img/flags/by.svg

<svg width="20" height="14" viewBox="0 0 20 14" fill="none" xmlns="http://www.w3.org/2000/svg">
<g clip-path="url(#clip0_1327_7155)">
<rect width="20" height="14" rx="3" fill="#F93939"/>
<path d="M18.0952 0H1.90476C0.852791 0 0 0.835735 0 1.86667V12.1333C0 13.1643 0.852791 14 1.90476 14H18.0952C19.1472 14 20 13.1643 20 12.1333V1.86667C20 0.835735 19.1472 0 18.0952 0Z" fill="#F93939"/>
<path fill-rule="evenodd" clip-rule="evenodd" d="M4.76172 10.2666H19.9998V13.9999H4.76172V10.2666Z" fill="#249F58"/>
<path fill-rule="evenodd" clip-rule="evenodd" d="M2.85714 0L4.7619 1.4L2.85714 2.8V0ZM2.85714 2.8L4.7619 4.2L2.85714 5.6V2.8ZM2.85714 5.6L4.7619 7L2.85714 8.4V5.6ZM2.85714 8.4L4.7619 9.8L2.85714 11.2V8.4ZM2.85714 11.2L4.7619 12.6L2.85714 14V11.2ZM1.90476 0L0 1.4L1.90476 2.8V0ZM1.90476 2.8L0 4.2L1.90476 5.6V2.8ZM1.90476 5.6L0 7L1.90476 8.4V5.6ZM1.90476 8.4L0 9.8L1.90476 11.2V8.4ZM1.90476 11.2L0 12.6L1.90476 14V11.2ZM1.90476 0H2.85714V1.86667H1.90476V0ZM1.90476 12.1333H2.85714V14H1.90476V12.1333ZM1.90476 4.66667H2.85714V6.53333H1.90476V4.66667ZM1.90476 2.8H2.85714V3.73333H1.90476V2.8ZM1.90476 10.2667H2.85714V11.2H1.90476V10.2667ZM1.90476 7.46667H2.85714V9.33333H1.90476V7.46667Z" fill="white"/>
</g>
<defs>
<clipPath id="clip0_1327_7155">
<rect width="20" height="14" rx="3" fill="white"/>
</clipPath>
</defs>
</svg>

<svg width="20" height="14" viewBox="0 0 20 14" fill="none" xmlns="http://www.w3.org/2000/svg"><g clip-path="url(#clip0_1327_7155)"><rect width="20" height="14" rx="3" fill="#F93939"/><path d="M18.095 0H1.905C.853 0 0 .836 0 1.867v10.266C0 13.164.853 14 1.905 14h16.19C19.147 14 20 13.164 20 12.133V1.867C20 .836 19.147 0 18.095 0z" fill="#F93939"/><path fill-rule="evenodd" clip-rule="evenodd" d="M4.762 10.267H20V14H4.762v-3.733z" fill="#249F58"/><path fill-rule="evenodd" clip-rule="evenodd" d="M2.857 0l1.905 1.4-1.905 1.4V0zm0 2.8l1.905 1.4-1.905 1.4V2.8zm0 2.8L4.762 7 2.857 8.4V5.6zm0 2.8l1.905 1.4-1.905 1.4V8.4zm0 2.8l1.905 1.4L2.857 14v-2.8zM1.905 0L0 1.4l1.905 1.4V0zm0 2.8L0 4.2l1.905 1.4V2.8zm0 2.8L0 7l1.905 1.4V5.6zm0 2.8L0 9.8l1.905 1.4V8.4zm0 2.8L0 12.6 1.905 14v-2.8zm0-11.2h.952v1.867h-.952V0zm0 12.133h.952V14h-.952v-1.867zm0-7.466h.952v1.866h-.952V4.667zm0-1.867h.952v.933h-.952V2.8zm0 7.467h.952v.933h-.952v-.933zm0-2.8h.952v1.866h-.952V7.467z" fill="#fff"/></g><defs><clipPath id="clip0_1327_7155"><rect width="20" height="14" rx="3" fill="#fff"/></clipPath></defs></svg>
